X:55
T:Napoli
C:Tarantella
N:TablEdited by Mike Stangeland
L:1/8
Q:1/4=219
M:6/8
K:C
z4z3/2^G/4B/4 | e3 E2z/^G/4B/4 | e3 cBA | cBA cBA | B3 E2z/^G/4B/4 | e3 E2z/^G/4B/4 | 
e3 cBA | cBA cBA | E3 efe | e3 EFE | E6 | z6 | EAB cBA | e2e a2a | g2g fgf | e/e/e/e/e/e/ e/e/e/e/e/e/ | 
dBc dcB | cAB cBA | B2B ^F2F | B/B/B/B/B/B/ B/B/B/B/B/B/ | EAB cBA | e2e a2a | 
g2g fgf | e/e/e/e/e/e/ e/e/e/e/e/e/ | ^dB^c de^f | g^fe gfe | b/b/b/b/b ^fga | 
g/g/g/g/g/g/ e/e/e/e/e/e/ | ^dB^c de^f | g^fe gfe | b3 ^d/d/d/d/d/d/ | e3 FED | 
FED FED | F3 fgf | e3 fgf | e3 FED | FED FED | F3 aba | ^g3 aba | ^g3 [=g3B3D3G,3] | 
z6 | eag eag | eag eag | e2e a2a | f/f/f/f/f/f/ f/f/f/f3/2 | fed cBA | Bcd efg | 
a2a b2b | g/g/g/g/g/g/ g/g/g/g3/2 | eag eag | eag eag | e2e a2a | b/b/b/b/b/b/ b/b/b/b3/2 | 
g/g/g/g/g ^fgf | e/e/e/e/e/e/ c/c/c/c/c/c/ | B/B/B/B/B ^FGA | G/G/G/G/G/G/ E/E/E/E/E/E/ | 
g/g/g/g/g ^fgf | e/e/e/e/e/e/ c/c/c/c/c/c/ | B/B/B/B/B ^FGF | E3 e2B | e3 E2B, | 
E6 | EAB cBA | e2e a2a | g2g fgf | e/e/e/e/e/e/ e/e/e/e/e/e/ | dBc dcB | cAB cBA | 
B2B ^F2F | B/B/B/B/B/B/ B/B/B/B/B/B/ | EAB cBA | e2e a2a | g2g fgf | e/e/e/e/e/e/ e/e/e/e/e/e/ | 
d_Bc dcB | ABc def | e3 [^g3B3] | [a4c4]^cd | e2e ^f2f | ^g2g a2a | ^f2f a2a | 
^g/g/g/g/g/g/ g/g/g/g/g/g/ | ^gab gab | ^g/g/g/g/g/g/ g/g/g/g/g/g/ | ^f^ga fga | 
e/e/e/e/e/e/ e^cd | e2e ^f2f | ^g2g a2a | b2b a2a | ^f/f/f/f/f/f/ f/f/f/f/f/f/ | 
a^g^f agf | e2e ^c2c | d2d B2B | e/e/e/e/e/e/ e/e/e/e/e/e/ | a^g^f agf | a2a e2e | 
^f2f ^G2G | A3 a_ba | g/g/g/g/g/g/ a/a/a/a/a/a/ | f/f/f/f/f/f/ edc | d/d/d/d/d/d/ e/e/e/e/e/e/ | 
c/c/c/c/c/c/ A_Bc | d2d _B2B | d/d/d/d/d/d/ _Bcd | e2e f2f | c/c/c/c/c/c/ a_ba | 
g/g/g/g/g/g/ a/a/a/a/a/a/ | f/f/f/f/f/f/ edc | d/d/d/d/d/d/ e/e/e/e/e/e/ | ^c/c/c/c/c/c/ ABc | 
d2d e2e | f/f/f/f/f/f/ de^f | g2g a2a | _b6 | _bef gfe | a/a/a/a/a/a/ f/f/f/f/f/f/ | 
gfe gfe | f/f/f/f/f/f/ d/d/d/d/d/d/ | _bag bag | agf agf | e3 AB^c | d3 D2D | 
d3 D2D | d3 A_B=B | def gag | f3 A2A | a3 A2A | a3 cBA | cBA cBA | e4cd | e2e ^f2f | 
^g2g a2a | ^f2f a2a | ^g/g/g/g/g/g/ g/g/g/g/g/g/ | ^gab gab | ^g/g/g/g/g/g/ g/g/g/g/g/g/ | 
^f^ga fga | e/e/e/e/e/e/ e^cd | e2e ^f2f | ^g2g a2a | b2b a2a | ^f/f/f/f/f/f/ f/f/f/f/f/f/ | 
a^g^f agf | e2e ^c2c | d2d B2B | e/e/e/e/e/e/ e/e/e/e/e/e/ | a^g^f agf | a2a e2e | 
^f2f ^G2G | A4z3/2^G/4B/4 | e3 E2z/^G/4B/4 | e3 cBA | cBA cBA | B3 E2z/^G/4B/4 | 
e3 E2z/^G/4B/4 | e3 cBA | cBA cBA | E3 efe | e3 EFE | E6 | z6 | EAB cBA | e2e a2a | 
g2g fgf | e/e/e/e/e/e/ e/e/e/e/e/e/ | dBc dcB | cAB cBA | B2B ^F2F | B/B/B/B/B/B/ B/B/B/B/B/B/ | 
EAB cBA | e2e a2a | g2g fgf | e/e/e/e/e/e/ e/e/e/e/e/e/ | ^dB^c de^f | g^fe gfe | 
b/b/b/b/b ^fga | g/g/g/g/g/g/ e/e/e/e/e/e/ | ^dB^c de^f | g^fe gfe | b3 ^d/d/d/d/d/d/ | 
e3 FED | FED FED | F3 fgf | e3 fgf | e3 FED | FED FED | F3 aba | ^g3 aba | ^g3 [=g3B3D3G,3] | 
z6 | eag eag | eag eag | e2e a2a | f/f/f/f/f/f/ f/f/f/f3/2 | fed cBA | Bcd efg | 
a2a b2b | g/g/g/g/g/g/ g/g/g/g3/2 | eag eag | eag eag | e2e a2a | b/b/b/b/b/b/ b/b/b/b3/2 | 
g/g/g/g/g ^fgf | e/e/e/e/e/e/ c/c/c/c/c/c/ | B/B/B/B/B ^FGA | G/G/G/G/G/G/ E/E/E/E/E/E/ | 
g/g/g/g/g ^fgf | e/e/e/e/e/e/ c/c/c/c/c/c/ | B/B/B/B/B ^FGF | E3 e2B | e3 E2B, | 
E6 | EAB cBA | e2e a2a | g2g fgf | e/e/e/e/e/e/ e/e/e/e/e/e/ | dBc dcB | cAB cBA | 
B2B ^F2F | B/B/B/B/B/B/ B/B/B/B/B/B/ | EAB cBA | e2e a2a | g2g fgf | e/e/e/e/e/e/ e/e/e/e/e/e/ | 
d_Bc dcB | ABc def | e3 [^g3B3] | [a3c3] f2f | e2e f2f | e3 dcB | cBA Bcd | c3 f2f | 
e2e f2f | e3 dcB | cBA BcB | A3 a_ba | ^gag =g^g=g | ^fgf =f^f=f | efe ^ded | 
d3 dc_B | d3 dc_B | d3 cBA | cBA cBA | e3 E^F^G | ABc def | e3 d3 | d3 B3 | [a4c4]z7/4z/4 | 
z6 | z6 | 
 

